!!!COM:	Bach, Johann Sebastian
!!!CDT:	1685/02/21/-1750/07/28/
!!!OTL@@DE:	Wir Christenleut
!!!SCT:	BWV 248/35
!!!PC#:	360
!!!AGN:	chorale
**kern	**kern	**kern	**kern
*ICvox	*ICvox	*ICvox	*ICvox
*Ibass	*Itenor	*Ialto	*Isoprn
*I"Bass	*I"Tenor	*I"Alto	*I"Soprano
*clefF4	*clefGv2	*clefG2	*clefG2
*k[f#c#g#]	*k[f#c#g#]	*k[f#c#g#]	*k[f#c#g#]
*f#:	*f#:	*f#:	*f#:
*M4/4	*M4/4	*M4/4	*M4/4
*met(c)	*met(c)	*met(c)	*met(c)
*MM100	*MM100	*MM100	*MM100
4F#	8AL	4c#	8f#L
.	8BJ	.	8g#J
=1	=1	=1	=1
16F#LL	4c#	4f#	4a
16G#	.	.	.
16ALL	.	.	.
16BJJJJ	.	.	.
8c#L	8c#L	4e#	4g#
8C#J	8BJ	.	.
4D;	4A;	4f#;	4f#;
4D	4B	4f#	8f#L
.	.	.	8g#J
=2	=2	=2	=2
8C#L	4c#	4f#	4a
8BBJ	.	.	.
4C#	8c#L	4e#	4g#
.	8BJ	.	.
4F#;	4A;	4c#;	4f#;
4F#	4A	4f#	4cc#
=3	=3	=3	=3
4G#	4B	8f#L	4b
.	.	8e#J	.
8AL	4c#	4f#	4a
8BJ	.	.	.
4c#;	4c#;	4e#;	4g#;
4C#	4c#	4e#	4g#
=4	=4	=4	=4
8F#L	4c#	4f#	4a
8EnXJ	.	.	.
8DL	4d	4f#	4a
8C#J	.	.	.
8DL	8dL	8f#L	4b
8BBJ	16eL	16g#L	.
.	16f#JJ	16aJJ	.
4E	8eL	4g#	4b
.	8dJ	.	.
=5	=5	=5	=5
8AAL	4c#	8g#L	4cc#
8AJ	.	8f#J	.
8G#L	8BL	8e#L	4cc#
8F#J	8AJ	8f#J	.
8F#L	8dL	4.g#	4b
8E#J	8c#J	.	.
8F#L	8c#L	.	4a
8DJ	8dJ	8f#	.
=6	=6	=6	=6
8BBL	8dL	4f#	2g#
8GG#J	8BJ	.	.
4C#	8G#L	4e#	.
.	8c#J	.	.
4FF#;	4A;	4c#;	4f#;
8F#L	4A	4f#	4cc#
8EnXJ	.	.	.
=7	=7	=7	=7
8DL	8BL	8f#L	4b
8C#J	8c#J	8e#J	.
4BB#	4d#	4f#	8aL
.	.	.	8g#J
4C#;	4c#;	4e#;	4g#;
4AA	4c#	8f#L	4cc#
.	.	8eJ	.
=8	=8	=8	=8
8BBnXL	4F#	8d#L	4b
8C#J	.	8eJ	.
8D#L	4B	8f#L	4a
8BBJ	.	8d#J	.
4E;	4B;	4e;	4g#;
8E#L	4c#	8g#L	4g#
8C#J	.	8e#J	.
=9	=9	=9	=9
4F#	8c#L	4f#	4a
.	8AJ	.	.
8F#L	4dnX	8aL	4a
8DJ	.	8f#J	.
4G	8dL	4d	4b
.	8BJ	.	.
8G#L	4e	8bL	4b
8EJ	.	8g#XJ	.
=10	=10	=10	=10
4A	8eL	8aL	4cc#
.	8c#J	8gJ	.
8A#L	8f#L	4f#	4cc#
8F#J	8eJ	.	.
4B	8dL	8f#L	4b
.	8c#J	8e#J	.
8B#L	4d#	4f#	8aL
8G#J	.	.	8g#J
=11	=11	=11	=11
8c#L	8c#L	8f#L	2g#
8BnXJ	8G#J	16e#L	.
.	.	16d#JJ	.
8c#L	8c#L	4e#	.
8C#J	8BJ	.	.
4F#;	4AnX;	4c#;	4f#;
==	==	==	==
*-	*-	*-	*-
!!!hum2abc: -Q ''
!!!title: @{PC#}. @{OTL@@DE}
!!!YOR1: 371 vierstimmige Choralges&auml;nge von Johann Sebastian Bach, 
!!!YOR2: 4th ed. by Alfred D&ouml;rffel (Leipzig: Breitkopf und H&auml;rtel, 
!!!YOR2: c.1875). 178 pp. Plate "V.A.10".  reprint: J.S. Bach, 371 Four-Part 
!!!YOR4: Chorales (New York: Associated Music Publishers, Inc., c.1940).
!!!SMS: B&H, 4th ed, Alfred D&ouml;rffel, c.1875, plate V.A.10
!!!EED:  Craig Stuart Sapp
!!!EEV:  2009/05/22
